X:1
T:Whitfield
T:A Major                    Merit Woodruff, 1800
T:Transcribed from Devotional Harmony, 1800.
T:Anonymous author, before 1757
%%score [ 1 2 3 4 ]
L:1/8
Q:1/4=140
M:4/4
K:A
V:1 treble nm="Tr." snm="Tr."
V:2 treble nm="C." snm="C."
V:3 treble-8 nm="T." snm="T."
V:4 bass nm="B." snm="B."
V:1
"_2. Come   ho   –        –       ly     Com – for – ter,     Thy  sa–cred   wit         –         ness   bear,   In  this  glad  hour!   Thou  who Almighty  art,""_1. Come,  thou                  al  –  migh – ty    King,  Help us  thy   name                  to     sing,   Help us  to  praise!    Fa  –  ther  all  glo–ri–ous," A4 | %1
 (c3 d c2 e2 | d4) e4 | (f2 d2) c4 | e8 | c4 A4 | (c2 e2) (B2 cA | G2) FE E4- | E4 E4 | A3 B c4 | %10
 d4 c2 A2 | A2 B2 c4 | z8 | z8 | %14
"_1. O'er all vic–to    –   ri    –   ous!                          Come and reign ov – er             us,    An–cient of  days!""_2. Descend in eve  –   ry       heart,                        And ne'er from us  de       –       part.  Spi – rit  of  power." e4 e2 e2 | %15
 (e2 d2) c4 | B8- | B4 z4 | c4 A2 d2 | c4 (d3 f) | e8 | (c2 f2) e2 d2 | c8 |] %23
V:2
 E4 | (E6 AG | F4) (E2 C2) | D4 (E2 A2) | G8 | A4 E4 | C4 (F>AGF | E2) E2 E4- | E4 z4 | %9
"_1. Help    us   to   praise!              Fa – ther all   glorious,""_2.  In      this  glad  hour!           Thou who Almighty art," E4 A3 A | %10
 E4 z4 | A4 A2 F2 | G2 G2 G4 | z8 | z8 | %15
"_1. O'er       all  vic – to – ri – ous!""_2. De   –  scend in  eve – ry  heart," A4 A2 A2 | %16
 G3 F E4- | E4 z4 | A4 A2 F2 | (G2 A2) (B2 G2) | A8 | (E2 A2) G2 G2 | E8 |] %23
V:3
"_1. Come,  thou                  al  –  migh – ty    King,  Help us  thy   name                  to     sing,                       Help       us  to  praise!                     Fa  –  ther  all  glo –""_2. Come   ho   –        –       ly     Com – for – ter,     Thy  sa–cred   wit         –         ness   bear,                       In       this  glad  hour!                    Thou who  al –migh –" E4 | %1
 (A3 B A3 B | A4) E4 | (F2 G2) A4 | B8 | e4 c4 | (e2 c2) (cB A2 | E2) G2 A4- | A4 z4 | z4 E4 | %10
 A3 B c4 | z8 | e4 e2 e2 | (f3 e d4) | %14
"_1. – ri–ous,    O'er      all  vic – to – ri – ous!          Come and reign ov – er             us,    An–cient of  days!""_2. – ty  art,    De  –  scend  in  eve – ry  heart,       And ne'er from us  de      –       part.  Spi – rit  of  power." c4 B4 | %15
 (A3 d) c2 A2 | c3 d e4- | e4 z4 | e4 c2 d2 | e4 (3(f2 e2 d2) | c8 | (A2 d2) c2 B2 | A8 |] %23
V:4
 A,,4 | (A,,8 | D,4) C,4 | B,,4 A,,4 | E,8 | A,,4 A,,4 | (A,,2 C,2) (B,,2 C,D, | E,2) E,2 A,,4- | %8
 A,,4 z4 | z8 | %10
"_1. Fa – ther all   glo  –  ri    –   ous,                        O'er""_2. Thou who al–migh –ty        art,                         De –" A,4 G,2 G,2 | %11
 (A,2 G,2) F,4 | E,8 | z4 (D,2 B,,2) | %14
"_1. all   vic   –   to    –    ri   –   ous!                          Come and reign ov – er             us,    An–cient of  days!""_2. –scend in     eve  –    ry      heart,                       And ne'er from us  de      –       part.  Spi – rit  of  power." C,4 E,4 | %15
 (A,,2 B,,2) (C,2 D,2) | E,8- | E,4 z4 | A,4 A,2 B,2 | C4 B,4 | [A,,A,]8 | (C,2 D,2) E,2 E,2 | %22
 A,,8 |] %23

